X:1
T:Title
%%score ( 1 2 ) 3
L:1/8
Q:1/4=97
M:3/4
K:Ab
V:1 treble nm="Grand Piano, Soprano"
V:2 treble 
V:3 bass nm="Choir Pad, Bass"
V:1
 [Ec]>[Fd] [Ec]2 [DB]2 | [DB]>[D=A] [DB]4 | [DB]>[Ec] [DB]2 [CA]2 | [CA]>[_CG] [=CA]4 | %4
w: By~Frederick~Augustus~Fillmore * * *||||
 [CA]>[EG] [DF]2 [FA]2 | [EG]>[DF] [CE]2 [CA]2 | [Ec]>[_Ge] [Fd]2 [DF]2 | [DG]>[DE] [CA]4 | %8
w: ||||
[M:4/4] [CA][CG][DF][DF] [DF]2 [FA]2 | [Fd][DF][DF][CE] [CE]4 | [EA][EB] [Ec]2 [Ec]2 [Ec][EA] | %11
w: |||
 [Ed][Ec] [EB]6 | [=Ec][EB][FA][FA] [FA]2 [FA]2 | [Fc][FA][FB][FA] [DF]4 | %14
w: |||
 [DG][DF] [CE]2 [EA]2 AG | FG [CA]6- | [CA]2 z2 z4 |] %17
w: |||
V:2
 x6 | x6 | x6 | x6 | x6 | x6 | x6 | x6 |[M:4/4] x8 | x8 | x8 | x8 | x8 | x8 | z4 z2 D2 | D2 z2 z4 | %16
 x8 |] %17
V:3
 [A,,A,]>[A,,A,] [E,A,]2 [E,G,]2 | [E,G,]>[E,_G,] [E,=G,]4 | [E,G,]>[E,G,] [A,,A,]2 [A,,A,]2 | %3
 [A,,E,]>[A,,E,] [A,,E,]4 | [A,,A,]>[C,A,] [D,A,]2 [D,A,]2 | [D,A,]>[D,A,] [A,,A,]4 | %6
 [A,,A,]>[C,A,] [D,A,]2 [D,A,]2 | E,>E, [A,,E,]4 | %8
[M:4/4] [A,,A,][A,,A,][D,A,][D,A,] [D,A,]2 [D,D]2 | [D,A,][D,A,][A,,A,][A,,A,] [A,,A,]4 | %10
 [C,A,][E,G,] A,2 A,2 A,[A,C] | [G,B,]A, [E,G,]6 | [C,G,][C,C][F,C][F,C] [F,C]2 [F,C]2 | %13
 [F,A,][F,C][D,D][D,D] [D,A,]4 | [D,A,][D,A,] [E,A,]2 [E,C]2 [E,B,]2 | [E,B,]2 [A,,A,]6- | %16
 [A,,A,]2 z2 z4 |] %17

